assets/Man health worker/Medium-Dark/Flat/man_health_worker_flat_medium-dark.svg

<svg width="32" height="32" viewBox="0 0 32 32" fill="none" xmlns="http://www.w3.org/2000/svg">
<path d="M21.2249 4.35022L20.8049 4.14022C20.5049 3.99022 20.2349 3.79022 19.9949 3.56022L19.1749 2.74022C18.5549 2.12022 17.6449 1.92022 16.8249 2.20022C16.2949 2.39022 15.7149 2.39022 15.1749 2.20022C14.4449 1.84022 13.5749 1.98022 13.0049 2.56022L11.9949 3.56022C11.7549 3.80022 11.4849 3.99022 11.1849 4.14022L10.7649 4.35022C9.98492 4.74022 9.56492 5.59022 9.71492 6.45022L10.2749 9.52022C10.3349 9.83022 10.9049 10.0602 10.9049 10.0602L21.0849 10.0502C21.0849 10.0502 21.6449 9.81022 21.6949 9.51022L22.2549 6.44022C22.4249 5.59022 21.9949 4.74022 21.2249 4.35022Z" fill="#2D242D"/>
<path d="M16 16L10.0281 16.7607C9.67054 16.9923 9.32732 17.244 9 17.5143L8 24L9 30H15.5L16 29.5L16.5 30H23L24 24L23 17.5143C22.6716 17.2431 22.3272 16.9906 21.9684 16.7584L16 16Z" fill="#D3D3D3"/>
<path d="M15.5 30H16.5V24.3302L21.8344 16.6731C20.1433 15.6129 18.1432 15 16 15C14.1128 15 12.3367 15.4752 10.7847 16.3125L15.5 24.1998V30Z" fill="#00A6ED"/>
<path d="M10.8712 19.4434L10.071 19.3003C9.94944 19.2799 9.86841 19.1674 9.87854 19.0448L10.021 16.7651C10.8361 16.2363 11.7257 15.8124 12.6706 15.5127L15.4797 22.1617L15.4849 22.1819C15.493 22.2134 15.5 22.2403 15.5 22.2741V25.9429C15.5 26.1166 15.2873 26.1983 15.1658 26.0757L10.2432 21.0069C10.152 20.9149 10.152 20.7719 10.233 20.6799L11.0028 19.8317C11.1244 19.6989 11.0535 19.474 10.8712 19.4434Z" fill="#E6E6E6"/>
<path d="M19.3294 15.5127L16.5203 22.1617L16.5151 22.182C16.507 22.2134 16.5 22.2403 16.5 22.2741V25.9429C16.5 26.1166 16.7127 26.1984 16.8342 26.0757L21.7568 21.0069C21.848 20.915 21.848 20.7719 21.767 20.6799L20.9972 19.8317C20.8756 19.6989 20.9465 19.4741 21.1288 19.4434L21.929 19.3003C22.0506 19.2799 22.1316 19.1675 22.1215 19.0448L21.979 16.7651C21.1639 16.2363 20.2743 15.8124 19.3294 15.5127Z" fill="#E6E6E6"/>
<path d="M23 17.5142V29.9998H27V25.9998C27 22.584 25.443 19.5317 23 17.5142Z" fill="#E6E6E6"/>
<path d="M9 29.9998V17.5142C6.55699 19.5317 5 22.584 5 25.9998V29.9998H9Z" fill="#E6E6E6"/>
<path d="M12.6906 18.3602C12.6906 16.5712 14.1409 15.1208 15.93 15.1208C17.719 15.1208 19.1694 16.5712 19.1694 18.3602V25.4802H20.1506V18.3602C20.1506 16.0293 18.2609 14.1396 15.93 14.1396C13.599 14.1396 11.7094 16.0293 11.7094 18.3602V19.9244C10.4619 20.1546 9.5094 21.2467 9.5094 22.5702V26.2002C9.5094 26.5612 9.80905 26.8608 10.17 26.8608H11.17C11.441 26.8608 11.6606 26.6412 11.6606 26.3702C11.6606 26.0993 11.441 25.8796 11.17 25.8796H10.4906V22.5702C10.4906 21.6226 11.2595 20.8608 12.2 20.8608C13.1476 20.8608 13.9094 21.6297 13.9094 22.5702V25.8696H13.32C13.049 25.8696 12.8294 26.0893 12.8294 26.3602C12.8294 26.6312 13.049 26.8508 13.32 26.8508H14.24C14.601 26.8508 14.8906 26.5612 14.8906 26.2002V22.5702C14.8906 21.2569 13.9465 20.1551 12.6906 19.9242V18.3602Z" fill="#635994"/>
<path d="M9.5094 23.73V26.2C9.5094 26.5609 9.79905 26.8506 10.16 26.8506H10.74V25.8694H10.4906V23.73H9.5094Z" fill="#0084CE"/>
<path d="M14.8906 26.21V23.74H13.9094V25.8794H13.66V26.8606H14.24C14.601 26.8606 14.8906 26.5709 14.8906 26.21Z" fill="#0084CE"/>
<path d="M19.67 26.7402C20.3659 26.7402 20.93 26.1761 20.93 25.4802C20.93 24.7843 20.3659 24.2202 19.67 24.2202C18.9742 24.2202 18.41 24.7843 18.41 25.4802C18.41 26.1761 18.9742 26.7402 19.67 26.7402Z" fill="#0084CE"/>
<path d="M19.67 26.19C20.0621 26.19 20.38 25.8721 20.38 25.48C20.38 25.0879 20.0621 24.77 19.67 24.77C19.2778 24.77 18.96 25.0879 18.96 25.48C18.96 25.8721 19.2778 26.19 19.67 26.19Z" fill="#1C5CD7"/>
<path d="M12.855 10.65C12.855 11.5502 12.1252 12.28 11.225 12.28C10.3247 12.28 9.59497 11.5502 9.59497 10.65C9.59497 9.7498 10.3247 9.02002 11.225 9.02002C12.1252 9.02002 12.855 9.7498 12.855 10.65Z" fill="#8B5C56"/>
<path d="M22.405 10.65C22.405 11.5502 21.6752 12.28 20.775 12.28C19.8748 12.28 19.145 11.5502 19.145 10.65C19.145 9.7498 19.8748 9.02002 20.775 9.02002C21.6752 9.02002 22.405 9.7498 22.405 10.65Z" fill="#8B5C56"/>
<path d="M16 18.5C14.8952 18.5 14 17.5546 14 16.3879V15H18V16.3879C18 17.5546 17.1048 18.5 16 18.5Z" fill="#8B5C56"/>
<path d="M10.8241 8.89444C10.8174 8.79881 10.8109 8.70599 10.8049 8.62C10.7849 8.33 10.9049 8.05 11.1149 7.86L11.3049 7.7C11.5549 7.48 11.6949 7.15 11.6949 6.82V5.95C11.6949 5.71 11.8649 5.49 12.0949 5.43C12.7349 5.27 14.0949 5 15.9849 5C17.8749 5 19.2349 5.27 19.8749 5.43C20.1149 5.49 20.2749 5.7 20.2749 5.95V6.81C20.2749 7.15 20.4149 7.47 20.6649 7.69L20.8749 7.87C21.0876 8.05368 21.1975 8.32148 21.1865 8.6011L20.805 14.03C20.635 15.77 19.265 17.01 17.595 17.01H14.395C12.725 17.01 11.355 15.77 11.185 14.03L10.8241 8.89444Z" fill="#966661"/>
<path d="M19.0849 8.79997C19.1849 8.86997 19.3049 8.90997 19.4149 8.90997C19.5749 8.90997 19.7349 8.83997 19.8449 8.69997C20.0249 8.45997 19.9849 8.10997 19.7449 7.92997C19.7149 7.89997 18.8949 7.27997 17.6949 7.41997C17.3949 7.45997 17.1749 7.72997 17.2149 8.02997C17.2549 8.32997 17.5249 8.54997 17.8249 8.50997C18.5336 8.4226 19.0255 8.75931 19.0811 8.79736C19.0828 8.79851 19.0849 8.79997 19.0849 8.79997Z" fill="#372128"/>
<path d="M12.155 8.68998C12.265 8.83998 12.425 8.90998 12.595 8.90998C12.705 8.90998 12.815 8.87998 12.915 8.79998C12.915 8.79998 12.9199 8.79692 12.9257 8.79312C13.0046 8.74145 13.4856 8.42614 14.175 8.50998C14.475 8.54998 14.745 8.32998 14.785 8.03998C14.815 7.73998 14.605 7.46998 14.305 7.42998C13.115 7.28998 12.285 7.90998 12.255 7.93998C12.015 8.11998 11.975 8.45998 12.155 8.68998Z" fill="#372128"/>
<path d="M12.2649 10.34C12.4149 9.74004 12.9649 9.29004 13.6149 9.29004C14.2949 9.29004 14.8549 9.78004 14.9849 10.41C15.0049 10.55 14.8949 10.68 14.7549 10.68H12.5349C12.3649 10.68 12.2249 10.52 12.2649 10.34Z" fill="white"/>
<path d="M19.7349 10.34C19.5849 9.74004 19.0349 9.29004 18.3849 9.29004C17.7049 9.29004 17.1449 9.78004 17.0149 10.41C16.9949 10.55 17.1049 10.68 17.2449 10.68H19.4649C19.6449 10.68 19.7749 10.51 19.7349 10.34Z" fill="white"/>
<path d="M12.9349 10.4501C12.9349 9.96006 13.3349 9.56006 13.8249 9.56006C14.3149 9.56006 14.7149 9.96006 14.7049 10.4501C14.7049 10.5401 14.6949 10.6101 14.6749 10.6901H12.9649C12.9449 10.6101 12.9349 10.5301 12.9349 10.4501Z" fill="#7D4533"/>
<path d="M19.065 10.4501C19.065 9.96006 18.665 9.56006 18.175 9.56006C17.685 9.56006 17.285 9.96006 17.295 10.4501C17.295 10.5401 17.305 10.6101 17.325 10.6901H19.035C19.055 10.6101 19.065 10.5301 19.065 10.4501Z" fill="#7D4533"/>
<path d="M13.8249 9.93994C14.1049 9.93994 14.3349 10.1699 14.3349 10.4499C14.3349 10.5299 14.3149 10.6099 14.2749 10.6899H13.3749C13.3349 10.6199 13.3149 10.5399 13.3149 10.4499C13.3149 10.1699 13.5449 9.93994 13.8249 9.93994Z" fill="black"/>
<path d="M18.1749 9.93994C17.8949 9.93994 17.6649 10.1699 17.6649 10.4499C17.6649 10.5299 17.6849 10.6099 17.7249 10.6899H18.6249C18.6649 10.6199 18.6849 10.5399 18.6849 10.4499C18.6849 10.1699 18.4549 9.93994 18.1749 9.93994Z" fill="black"/>
<path d="M13.68 10.0999C13.68 10.1883 13.6084 10.2599 13.52 10.2599C13.4316 10.2599 13.36 10.1883 13.36 10.0999C13.36 10.0116 13.4316 9.93994 13.52 9.93994C13.6084 9.93994 13.68 10.0116 13.68 10.0999Z" fill="white"/>
<path d="M18.09 10.0999C18.09 10.1883 18.0184 10.2599 17.93 10.2599C17.8417 10.2599 17.77 10.1883 17.77 10.0999C17.77 10.0116 17.8417 9.93994 17.93 9.93994C18.0184 9.93994 18.09 10.0116 18.09 10.0999Z" fill="white"/>
<path d="M15.625 10.3701L15.105 12.0401C14.995 12.3801 15.255 12.7301 15.615 12.7301H16.375C16.735 12.7301 16.985 12.3801 16.885 12.0401L16.375 10.3701C16.255 10.0101 15.745 10.0101 15.625 10.3701Z" fill="#75443E"/>
<path d="M15.995 13.7099C15.455 13.7099 14.955 13.5799 14.525 13.3599C14.385 13.2799 14.225 13.4499 14.315 13.5899C14.675 14.1399 15.285 14.4999 15.995 14.4999C16.705 14.4999 17.315 14.1399 17.675 13.5899C17.765 13.4499 17.605 13.2899 17.465 13.3599C17.035 13.5799 16.535 13.7099 15.995 13.7099Z" fill="#990838"/>
</svg>

<svg xmlns="http://www.w3.org/2000/svg" width="32" height="32" fill="none"><path fill="#2D242D" d="m21.225 4.35-.42-.21c-.3-.15-.57-.35-.81-.58l-.82-.82c-.62-.62-1.53-.82-2.35-.54-.53.19-1.11.19-1.65 0a1.87 1.87 0 0 0-2.17.36l-1.01 1c-.24.24-.51.43-.81.58l-.42.21c-.78.39-1.2 1.24-1.05 2.1l.56 3.07c.06.31.63.54.63.54l10.18-.01s.56-.24.61-.54l.56-3.07c.17-.85-.26-1.7-1.03-2.09Z"/><path fill="#D3D3D3" d="m16 16-5.972.76c-.357.232-.7.484-1.028.754L8 24l1 6h6.5l.5-.5.5.5H23l1-6-1-6.486a11.04 11.04 0 0 0-1.032-.756L16 16Z"/><path fill="#00A6ED" d="M15.5 30h1v-5.67l5.334-7.657A10.948 10.948 0 0 0 16 15a10.95 10.95 0 0 0-5.215 1.313L15.5 24.2V30Z"/><path fill="#E6E6E6" d="m10.871 19.443-.8-.143a.236.236 0 0 1-.192-.255l.142-2.28a10.952 10.952 0 0 1 2.65-1.252l2.809 6.649.005.02c.008.031.015.058.015.092v3.669c0 .174-.213.255-.334.133l-4.923-5.07a.24.24 0 0 1-.01-.326l.77-.848c.121-.133.05-.358-.132-.389ZM19.33 15.513l-2.81 6.649-.005.02c-.008.031-.015.058-.015.092v3.669c0 .174.213.255.334.133l4.923-5.07a.24.24 0 0 0 .01-.326l-.77-.848c-.121-.133-.05-.358.132-.389l.8-.143a.236.236 0 0 0 .193-.255l-.143-2.28a10.952 10.952 0 0 0-2.65-1.252ZM23 17.514V30h4v-4c0-3.416-1.557-6.468-4-8.486ZM9 30V17.514C6.557 19.532 5 22.584 5 26v4h4Z"/><path fill="#635994" d="M12.69 18.36a3.24 3.24 0 0 1 6.48 0v7.12h.98v-7.12a4.22 4.22 0 0 0-8.44 0v1.564a2.69 2.69 0 0 0-2.2 2.646v3.63c0 .361.299.66.66.66h1a.49.49 0 1 0 0-.98h-.68v-3.31a1.71 1.71 0 0 1 3.42 0v3.3h-.59a.49.49 0 0 0 0 .98h.92c.361 0 .65-.289.65-.65v-3.63a2.692 2.692 0 0 0-2.2-2.646V18.36Z"/><path fill="#0084CE" d="M9.51 23.73v2.47c0 .36.289.65.65.65h.58v-.98h-.25v-2.14h-.98ZM14.89 26.21v-2.47h-.98v2.14h-.25v.98h.58c.361 0 .65-.29.65-.65ZM19.67 26.74a1.26 1.26 0 1 0 0-2.52 1.26 1.26 0 0 0 0 2.52Z"/><path fill="#1C5CD7" d="M19.67 26.19a.71.71 0 1 0 0-1.42.71.71 0 0 0 0 1.42Z"/><path fill="#8B5C56" d="M12.855 10.65a1.63 1.63 0 1 1-3.26 0 1.63 1.63 0 0 1 3.26 0ZM22.405 10.65a1.63 1.63 0 1 1-3.26 0 1.63 1.63 0 0 1 3.26 0ZM16 18.5c-1.105 0-2-.945-2-2.112V15h4v1.388c0 1.167-.895 2.112-2 2.112Z"/><path fill="#966661" d="m10.824 8.894-.02-.274c-.02-.29.1-.57.31-.76l.19-.16c.25-.22.39-.55.39-.88v-.87c0-.24.17-.46.4-.52.64-.16 2-.43 3.89-.43 1.89 0 3.25.27 3.89.43.24.06.4.27.4.52v.86c0 .34.14.66.39.88l.21.18a.91.91 0 0 1 .313.731l-.382 5.429c-.17 1.74-1.54 2.98-3.21 2.98h-3.2c-1.67 0-3.04-1.24-3.21-2.98l-.36-5.136Z"/><path fill="#372128" d="M19.085 8.8a.544.544 0 0 0 .76-.1c.18-.24.14-.59-.1-.77-.03-.03-.85-.65-2.05-.51a.55.55 0 0 0 .13 1.09c.709-.087 1.2.25 1.256.287l.004.003ZM12.155 8.69c.11.15.27.22.44.22.11 0 .22-.03.32-.11l.01-.007c.08-.052.56-.367 1.25-.283.3.04.57-.18.61-.47.03-.3-.18-.57-.48-.61-1.19-.14-2.02.48-2.05.51a.53.53 0 0 0-.1.75Z"/><path fill="#fff" d="M12.265 10.34c.15-.6.7-1.05 1.35-1.05.68 0 1.24.49 1.37 1.12.02.14-.09.27-.23.27h-2.22a.28.28 0 0 1-.27-.34ZM19.735 10.34c-.15-.6-.7-1.05-1.35-1.05-.68 0-1.24.49-1.37 1.12-.02.14.09.27.23.27h2.22c.18 0 .31-.17.27-.34Z"/><path fill="#7D4533" d="M12.935 10.45c0-.49.4-.89.89-.89s.89.4.88.89c0 .09-.01.16-.03.24h-1.71a.986.986 0 0 1-.03-.24ZM19.065 10.45c0-.49-.4-.89-.89-.89s-.89.4-.88.89c0 .09.01.16.03.24h1.71c.02-.08.03-.16.03-.24Z"/><path fill="#000" d="M13.825 9.94a.512.512 0 0 1 .45.75h-.9a.512.512 0 0 1 .45-.75ZM18.175 9.94a.512.512 0 0 0-.45.75h.9a.512.512 0 0 0-.45-.75Z"/><path fill="#fff" d="M13.68 10.1a.16.16 0 1 1-.32 0 .16.16 0 0 1 .32 0ZM18.09 10.1a.16.16 0 1 1-.32 0 .16.16 0 0 1 .32 0Z"/><path fill="#75443E" d="m15.625 10.37-.52 1.67c-.11.34.15.69.51.69h.76c.36 0 .61-.35.51-.69l-.51-1.67a.395.395 0 0 0-.75 0Z"/><path fill="#990838" d="M15.995 13.71c-.54 0-1.04-.13-1.47-.35-.14-.08-.3.09-.21.23.36.55.97.91 1.68.91s1.32-.36 1.68-.91c.09-.14-.07-.3-.21-.23-.43.22-.93.35-1.47.35Z"/></svg>
